src/qt/dogecash/res/img/ic-nav-cold-staking-active.svg

<svg id="ic-nav-cold-staking-active" xmlns="http://www.w3.org/2000/svg" width="24" height="45" viewBox="0 0 24 45">
  <rect id="Rectangle-Copy-7" width="24" height="45" fill="none"/>
  <g id="Path" transform="translate(1 14)">
    <path id="Path_381" data-name="Path 381" d="M20.7,15.1l-3-1.6,2.7-.5c.5,0,.8-.5.5-1.1,0-.5-.5-.8-1.1-.5l-4.3,1.1-3-1.6,3-1.6,4.3,1.1h.3c.3,0,.8-.3.8-.5a1.881,1.881,0,0,0-.5-1.1l-2.7-.5,3-1.6A.762.762,0,0,0,21,5.6c-.3-.3-.8-.5-1.1-.3l-3,1.6.8-2.4a1.881,1.881,0,0,0-.5-1.1c-.5,0-1.1.3-1.1.5L15,7.8,12,9.4V6.1l3.3-3a.785.785,0,0,0,0-1.1c-.3-.3-.8-.3-1.4,0L12.1,4V.8a.736.736,0,0,0-.8-.8.736.736,0,0,0-.8.8V4L8.3,1.9c-.3-.3-.8-.3-1.4,0A.785.785,0,0,0,6.9,3l3.3,3V9.3l-3-1.6L6.1,3.6c0-.5-.5-.8-1.1-.5-.5,0-.8.5-.5,1.1l.8,2.4L2.3,5c-.5-.3-1.1,0-1.1.3-.3.3,0,.8.3,1.1L4.5,8l-2.7.5c-.5,0-.8.5-.5,1.1-.1.1.5.4.7.4h.3L6.6,8.9l3,1.6-3,1.6L2.3,11c-.5,0-1.1.3-1.1.5a1.881,1.881,0,0,0,.5,1.1l2.7.5-3,1.6a.762.762,0,0,0-.3,1.1c.3.3.5.5.8.5h.5l2.7-1.6-.8,2.7a1.881,1.881,0,0,0,.5,1.1h.3c.3,0,.8-.3.8-.5L7,13.9l3-1.6v3.3l-3.3,3a.785.785,0,0,0,0,1.1c.3.3.8.3,1.4,0L10,17.8v3.3a.736.736,0,0,0,.8.8.736.736,0,0,0,.8-.8V17.8l1.9,1.9c.5.3.5.3.7.3.3,0,.5,0,.5-.3a.785.785,0,0,0,0-1.1l-3.3-3V12.1l3,1.6,1.1,4.1c0,.3.5.5.8.5h.3c.5,0,.8-.5.5-1.1V14.8l3,1.6h.5c.3,0,.5-.3.8-.5C21.6,16,21.3,15.4,20.7,15.1Z" fill="#216beb"/>
  </g>
</svg>

<?xml version="1.0" encoding="UTF-8"?>
<svg width="24px" height="45px" viewBox="0 0 24 45" version="1.1" xmlns="http://www.w3.org/2000/svg" xmlns:xlink="http://www.w3.org/1999/xlink">
    <title>ic-nav-cold-staking-active</title>
    <g id="Page-1" stroke="none" stroke-width="1" fill="none" fill-rule="evenodd">
        <g id="ic-nav-cold-staking-active">
            <rect id="Rectangle-Copy-7" x="0" y="0" width="24" height="45"></rect>
            <g transform="translate(1.000000, 14.000000)" fill="#FFFFFF" fill-rule="nonzero" id="Path">
                <path d="M20.7,15.1 L17.7,13.5 L20.4,13 C20.9,13 21.2,12.5 20.9,11.9 C20.9,11.4 20.4,11.1 19.8,11.4 L15.5,12.5 L12.5,10.9 L15.5,9.3 L19.8,10.4 L20.1,10.4 C20.4,10.4 20.9,10.1 20.9,9.9 C20.9,9.4 20.6,9.1 20.4,8.8 L17.7,8.3 L20.7,6.7 C21.2,6.4 21.2,5.9 21,5.6 C20.7,5.3 20.2,5.1 19.9,5.3 L16.9,6.9 L17.7,4.5 C17.7,4 17.4,3.7 17.2,3.4 C16.7,3.4 16.1,3.7 16.1,3.9 L15,7.8 L12,9.4 L12,6.1 L15.3,3.1 C15.6,2.8 15.6,2.3 15.3,2 C15,1.7 14.5,1.7 13.9,2 L12.1,4 L12.1,0.8 C12.1,0.3 11.8,0 11.3,0 C10.8,0 10.5,0.3 10.5,0.8 L10.5,4 L8.3,1.9 C8,1.6 7.5,1.6 6.9,1.9 C6.6,2.2 6.6,2.7 6.9,3 L10.2,6 L10.2,9.3 L7.2,7.7 L6.1,3.6 C6.1,3.1 5.6,2.8 5,3.1 C4.5,3.1 4.2,3.6 4.5,4.2 L5.3,6.6 L2.3,5 C1.8,4.7 1.2,5 1.2,5.3 C0.9,5.6 1.2,6.1 1.5,6.4 L4.5,8 L1.8,8.5 C1.3,8.5 1,9 1.3,9.6 C1.2,9.7 1.8,10 2,10 L2.3,10 L6.6,8.9 L9.6,10.5 L6.6,12.1 L2.3,11 C1.8,11 1.2,11.3 1.2,11.5 C1.2,12 1.5,12.3 1.7,12.6 L4.4,13.1 L1.4,14.7 C0.9,15 0.9,15.5 1.1,15.8 C1.4,16.1 1.6,16.3 1.9,16.3 C2.2,16.3 2.2,16.3 2.4,16.3 L5.1,14.7 L4.3,17.4 C4.3,17.9 4.6,18.2 4.8,18.5 L5.1,18.5 C5.4,18.5 5.9,18.2 5.9,18 L7,13.9 L10,12.3 L10,15.6 L6.7,18.6 C6.4,18.9 6.4,19.4 6.7,19.7 C7,20 7.5,20 8.1,19.7 L10,17.8 L10,21.1 C10,21.6 10.3,21.9 10.8,21.9 C11.3,21.9 11.6,21.6 11.6,21.1 L11.6,17.8 L13.5,19.7 C14,20 14,20 14.2,20 C14.5,20 14.7,20 14.7,19.7 C15,19.4 15,18.9 14.7,18.6 L11.4,15.6 L11.4,12.1 L14.4,13.7 L15.5,17.8 C15.5,18.1 16,18.3 16.3,18.3 L16.6,18.3 C17.1,18.3 17.4,17.8 17.1,17.2 L17.1,14.8 L20.1,16.4 C20.4,16.4 20.4,16.4 20.6,16.4 C20.9,16.4 21.1,16.1 21.4,15.9 C21.6,16 21.3,15.4 20.7,15.1 Z"></path>
            </g>
        </g>
    </g>
</svg>
